SVG_Azure_Grouped/Compute/Azure Stack Offer.svg

<?xml version="1.0" encoding="UTF-8" standalone="no"?>
<!-- Generated by Microsoft Visio, SVG Export Azure Stack Offer.svg Page-1 -->

<svg
   xmlns:dc="http://purl.org/dc/elements/1.1/"
   xmlns:cc="http://creativecommons.org/ns#"
   xmlns:rdf="http://www.w3.org/1999/02/22-rdf-syntax-ns#"
   xmlns:svg="http://www.w3.org/2000/svg"
   xmlns="http://www.w3.org/2000/svg"
   xmlns:sodipodi="http://sodipodi.sourceforge.net/DTD/sodipodi-0.dtd"
   xmlns:inkscape="http://www.inkscape.org/namespaces/inkscape"
   width="0.78760856in"
   height="0.78740317in"
   viewBox="0 0 56.70767 56.693047"
   xml:space="preserve"
   class="st4"
   version="1.1"
   id="svg41"
   sodipodi:docname="Azure Stack Offer.svg"
   style="font-size:12px;overflow:visible;color-interpolation-filters:sRGB;fill:none;fill-rule:evenodd;stroke-linecap:square;stroke-miterlimit:3"
   inkscape:version="0.92.5 (2060ec1f9f, 2020-04-08)"><metadata
   id="metadata45"><rdf:RDF><cc:Work
       rdf:about=""><dc:format>image/svg+xml</dc:format><dc:type
         rdf:resource="http://purl.org/dc/dcmitype/StillImage" /></cc:Work></rdf:RDF></metadata><sodipodi:namedview
   pagecolor="#ffffff"
   bordercolor="#666666"
   borderopacity="1"
   objecttolerance="10"
   gridtolerance="10"
   guidetolerance="10"
   inkscape:pageopacity="0"
   inkscape:pageshadow="2"
   inkscape:window-width="640"
   inkscape:window-height="480"
   id="namedview43"
   showgrid="false"
   inkscape:zoom="1.4175768"
   inkscape:cx="37.812155"
   inkscape:cy="37.797914"
   inkscape:window-x="0"
   inkscape:window-y="0"
   inkscape:window-maximized="0"
   inkscape:current-layer="svg41" />
	<style
   type="text/css"
   id="style2">
	<![CDATA[
		.st1 {fill:url(#grad0-6);stroke:none;stroke-linecap:butt;stroke-width:34.0841}
		.st2 {fill:#005ba1;stroke:none;stroke-linecap:butt;stroke-width:34.0841}
		.st3 {fill:#ffffff;stroke:none;stroke-linecap:butt;stroke-width:34.0841}
		.st4 {fill:none;fill-rule:evenodd;font-size:12px;overflow:visible;stroke-linecap:square;stroke-miterlimit:3}
	]]>
	</style>

	<defs
   id="Patterns_And_Gradients">
		<linearGradient
   id="grad0-6"
   x1="-0.0082235079"
   y1="68.178893"
   x2="56.692217"
   y2="68.178893"
   gradientTransform="scale(1.0001304,0.99986957)"
   gradientUnits="userSpaceOnUse">
			<stop
   offset="0"
   stop-color="#0078d4"
   stop-opacity="1"
   id="stop4" />
			<stop
   offset="0.16"
   stop-color="#1380da"
   stop-opacity="1"
   id="stop6" />
			<stop
   offset="0.53"
   stop-color="#3c91e5"
   stop-opacity="1"
   id="stop8" />
			<stop
   offset="0.82"
   stop-color="#559cec"
   stop-opacity="1"
   id="stop10" />
			<stop
   offset="1"
   stop-color="#5ea0ef"
   stop-opacity="1"
   id="stop12" />
		</linearGradient>
	</defs>
	<g
   id="g39"
   transform="translate(-34.076056,-34.0859)">
		<title
   id="title16">Page-1</title>
		<g
   id="group11770-1"
   transform="translate(34.0841,-34.0841)">
			<title
   id="title18">Azure Stack Offer.11770</title>
			<g
   id="group11771-2">
				<title
   id="title20">g23</title>
				<g
   id="shape11772-3">
					<title
   id="title22">path17</title>
					<path
   d="m 56.09,76.48 -7.76,-7.74 a 2.03278,2.06909 -180 0 0 -1.4,-0.57 l -14.06,0.54 a 1.76619,1.79774 -180 0 0 -1.2,0.68 l -31.1,31.27 a 1.83283,1.86558 -180 0 0 0,2.72 l 20.67,20.93 a 1.89948,1.93342 -180 0 0 2.66,0 L 54.99,92.86 a 1.76619,1.79774 -180 0 0 0.57,-1.19 l 1.13,-13.56 a 1.93281,1.96734 -180 0 0 -0.6,-1.63 z m -9.23,5.12 a 3.33243,3.39196 0 1 1 3.33,-3.39 3.33243,3.39196 0 0 1 -3.33,3.39 z"
   class="st1"
   id="path24"
   inkscape:connector-curvature="0"
   style="fill:url(#grad0-6);stroke:none;stroke-width:34.08409882;stroke-linecap:butt" />
				</g>
				<g
   id="shape11773-7"
   transform="translate(42.548,-42.3054)">
					<title
   id="title27">path19</title>
					<path
   d="m 4.31,114.14 a 6.16499,6.27512 -180 1 0 6.2,6.27 6.16499,6.27512 -180 0 0 -6.2,-6.27 z m 3.34,6.95 a 3.4012551,3.4620158 0 1 1 -6.67,-1.36 3.33243,3.39196 0 0 1 2.7,-2.74 3.33243,3.39196 0 0 1 4.03,4.1 z"
   class="st2"
   id="path29"
   inkscape:connector-curvature="0"
   style="fill:#005ba1;stroke:none;stroke-width:34.08409882;stroke-linecap:butt" />
				</g>
				<g
   id="shape11774-9"
   transform="translate(8.10615,-7.9844)">
					<title
   id="title32">path21</title>
					<path
   d="m 22.69,91.65 -1.26,-1.29 -1.2,1.29 -1.64,-1.66 2.8,-2.95 2.9,2.95 z m -15.36,13.03 -1.63,-1.66 3.6,-3.67 0.93,0.85 -0.83,-0.85 1.53,1.77 z m 8.4,-11.81 1.63,1.7 -3.53,3.6 L 12.2,96.5 Z M 2.9,111.8 0,108.85 2.9,106 l 1.63,1.66 -1.26,1.19 1.26,1.29 z m 4.66,1.43 3.87,3.97 -1.67,1.66 -3.86,-3.94 z m 8.14,11.63 -2.9,-2.95 1.76,-1.66 1.14,1.19 1.2,-1.09 1.63,1.66 z m 7.86,-11.09 1.67,1.66 -3.7,3.6 -1.64,-1.67 z m 4.5,-1.26 -1.73,-1.66 3.6,-3.66 1.63,1.66 -3.33,3.66 -0.8,-0.81 z m 6.43,-6.51 -1.77,-1.49 z m 0,0 -1.77,-1.49 1.17,-1.32 -1.17,-1.16 1.64,-1.79 2.9,2.95 z m -7.06,-12.85 3.86,3.93 -1.66,1.7 -3.87,-3.94 z"
   class="st3"
   id="path34"
   inkscape:connector-curvature="0"
   style="fill:#ffffff;stroke:none;stroke-width:34.08409882;stroke-linecap:butt" />
				</g>
			</g>
		</g>
	</g>
</svg>

<?xml version="1.0" encoding="UTF-8" standalone="no"?>
<!DOCTYPE svg PUBLIC "-//W3C//DTD SVG 1.1//EN" "http://www.w3.org/Graphics/SVG/1.1/DTD/svg11.dtd">
<!-- Generated by Microsoft Visio, SVG Export Azure Stack Offer.svg Page-1 -->
<svg xmlns="http://www.w3.org/2000/svg" xmlns:xlink="http://www.w3.org/1999/xlink" xmlns:ev="http://www.w3.org/2001/xml-events"
		width="1.73431in" height="1.73418in" viewBox="0 0 124.87 124.861" xml:space="preserve" color-interpolation-filters="sRGB"
		class="st4">
	<style type="text/css">
	<![CDATA[
		.st1 {fill:url(#grad0-6);stroke:none;stroke-linecap:butt;stroke-width:34.0841}
		.st2 {fill:#005ba1;stroke:none;stroke-linecap:butt;stroke-width:34.0841}
		.st3 {fill:#ffffff;stroke:none;stroke-linecap:butt;stroke-width:34.0841}
		.st4 {fill:none;fill-rule:evenodd;font-size:12px;overflow:visible;stroke-linecap:square;stroke-miterlimit:3}
	]]>
	</style>

	<defs id="Patterns_And_Gradients">
		<linearGradient id="grad0-6" x1="0" y1="0" x2="1" y2="0" gradientTransform="rotate(-120.45559925606 0.5 0.5)">
			<stop offset="0" stop-color="#0078d4" stop-opacity="1"/>
			<stop offset="0.16" stop-color="#1380da" stop-opacity="1"/>
			<stop offset="0.53" stop-color="#3c91e5" stop-opacity="1"/>
			<stop offset="0.82" stop-color="#559cec" stop-opacity="1"/>
			<stop offset="1" stop-color="#5ea0ef" stop-opacity="1"/>
		</linearGradient>
	</defs>
	<g>
		<title>Page-1</title>
		<g id="group11491-1" transform="translate(34.0841,-34.0841)">
			<title>Azure Stack Offer.11491</title>
			<g id="group11492-2">
				<title>g23</title>
				<g id="shape11493-3">
					<title>path17</title>
					<path d="M56.09 76.48 L48.33 68.74 A2.03278 2.06909 -180 0 0 46.93 68.17 L32.87 68.71 A1.76619 1.79774 -180 0
								 0 31.67 69.39 L0.57 100.66 A1.83283 1.86558 -180 0 0 0.57 103.38 L21.24 124.31 A1.89948 1.93342
								 -180 0 0 23.9 124.31 L54.99 92.86 A1.76619 1.79774 -180 0 0 55.56 91.67 L56.69 78.11 A1.93281 1.96734
								 -180 0 0 56.09 76.48 ZM46.86 81.6 A3.33243 3.39196 0 1 1 50.19 78.21 A3.33243 3.39196 0 0 1 46.86
								 81.6 Z" class="st1"/>
				</g>
				<g id="shape11494-7" transform="translate(42.548,-42.3054)">
					<title>path19</title>
					<path d="M4.31 114.14 A6.16499 6.27512 -180 1 0 10.51 120.41 A6.16499 6.27512 -180 0 0 4.31 114.14 ZM7.65 121.09
								 A3.39842 3.45913 0 1 1 0.98 119.73 A3.33243 3.39196 0 0 1 3.68 116.99 A3.33243 3.39196 0 0 1 7.71
								 121.09 L7.65 121.09 Z" class="st2"/>
				</g>
				<g id="shape11495-9" transform="translate(8.10615,-7.9844)">
					<title>path21</title>
					<path d="M22.69 91.65 L21.43 90.36 L20.23 91.65 L18.59 89.99 L21.39 87.04 L24.29 89.99 L22.69 91.65 ZM7.33 104.68
								 L5.7 103.02 L9.3 99.35 L10.23 100.2 L9.4 99.35 L10.93 101.12 L7.33 104.68 ZM15.73 92.87 L17.36 94.57
								 L13.83 98.17 L12.2 96.5 L15.73 92.87 ZM2.9 111.8 L0 108.85 L2.9 106 L4.53 107.66 L3.27 108.85 L4.53
								 110.14 L2.9 111.8 ZM7.56 113.23 L11.43 117.2 L9.76 118.86 L5.9 114.92 L7.56 113.23 ZM15.7 124.86
								 L12.8 121.91 L14.56 120.25 L15.7 121.44 L16.9 120.35 L18.53 122.01 L15.7 124.86 ZM23.56 113.77 L25.23
								 115.43 L21.53 119.03 L19.89 117.36 L23.56 113.77 ZM28.06 112.51 L26.33 110.85 L29.93 107.19 L31.56
								 108.85 L28.23 112.51 L27.43 111.7 L28.06 112.51 ZM34.49 106 L32.72 104.51 L34.49 106 ZM34.49 106
								 L32.72 104.51 L33.89 103.19 L32.72 102.03 L34.36 100.24 L37.26 103.19 L34.49 106 ZM27.43 93.15 L31.29
								 97.08 L29.63 98.78 L25.76 94.84 L27.43 93.15 Z" class="st3"/>
				</g>
			</g>
		</g>
	</g>
</svg>
